X: 25
T: Craindre vous vueil doulce dame de pris
N: Derived from Duf3007.2-Craindre_vous_vueil_doulce_dame_de_pris.krn
C: Guillaume Du Fay
%%abc-version 2.0
%%abcx-abcm2ps-target-version 5.9.1 (29 Sep 2008)
%%abc-creator hum2abc beta
%%abcx-conversion-date 2019/02/16 20:31:47
%%abc-edited-by Jesse Rodin
%%abc-edited-by Alejandro Planchart
%%abcx-initial-encoding-date 2013///
%%humdrum-veritas 3061853332
%%humdrum-veritas-data 771533150
%%linebreak <none>
%%barnumbers 0
L: 1/4
M: 3/1
Q: 1/2=120
V: 1 clef=treble
V: 2 clef=treble-8
V: 3 clef=treble-8
K: F
[V:1] C4E4D4 | 
[V:2] c8G4 | 
[V:3] c8B4 | 
[V:1] E2F2G4G4 | 
[V:2] c4d8 | 
[V:3] A4G8 | 
[V:1] E2F2E4D4 | 
[V:2] c8G4 | 
[V:3] A6c2=B2A2 | 
[V:1] C4z4G4 | 
[V:2] g8e4 | 
[V:3] c8c2d2 | 
[V:1] G4A4=B2G2- | 
[V:2] c2B2A4G4 | 
[V:3] e4f4g4 | 
[V:1] G2A2=B2c2B2A2 | 
[V:2] e2d4g2^f3e | 
[V:3] c2f4e2d4 | 
[V:1] c4z4c2=B2 | 
[V:2] g8z4 | 
[V:3] c12- | 
[V:1] G6A2G2FE | 
[V:2] _e6d2_e2c2 | 
[V:3] c12 | 
[V:1] D2G2F2D2FEDC | 
[V:2] G8A4 | 
[V:3] B8c4 | 
[V:1] =B,8C4 | 
[V:2] z2G4G2A4 | 
[V:3] d8c4 | 
[V:1] D2E2G2^F4E2 | 
[V:2] G4c6=B2 | 
[V:3] B4A8 | 
[V:1] G8z4 | 
[V:2] d12 | 
[V:3] G12 | 
[V:1] G8A4 | 
[V:2] e8e4 | 
[V:3] c12 | 
[V:1] =B8G4- | 
[V:2] d4g2f2d4 | 
[V:3] G12 | 
[V:1] G4c4=B2A2- | 
[V:2] e8d4 | 
[V:3] c8d4 | 
[V:1] A2G2=B4A4 | 
[V:2] c4g4d4 | 
[V:3] e6g2^f2e2 | 
[V:1] G8z4 | 
[V:2] G8z4 | 
[V:3] g8z4 | 
[V:1] c4c4=B4 | 
[V:2] F8G4 | 
[V:3] a8g4 | 
[V:1] A4G2E2F4 | 
[V:2] A2=B2c4d4 | 
[V:3] f4e4d4 | 
[V:1] E4z4F4 | 
[V:2] z2A2=B2c2d4 | 
[V:3] e4z4a4 | 
[V:1] E4D8 | 
[V:2] z2g2a2a4gf | 
[V:3] g4f6e2 | 
[V:1] C4z2c2=B2A2 | 
[V:2] e4c4G4 | 
[V:3] g4e2c2d4 | 
[V:1] c4=B2G2A4 | 
[V:2] g2fed2cBA4 | 
[V:3] c4d2e4f2 | 
[V:1] B4A6G2 | 
[V:2] G4^f8 | 
[V:3] g4d8 | 
[V:1] G8z4 | 
[V:2] d12 | 
[V:3] G12 | 
[V:1] C4C4C4 | 
[V:2] _e8c4- | 
[V:3] g8g2f2 | 
[V:1] =B,8C4 | 
[V:2] c2d2G4g4 | 
[V:3] d8_e4 | 
[V:1] D4E4A4 | 
[V:2] f4g4e4 | 
[V:3] d4c8 | 
[V:1] G4^F6E2 | 
[V:2] d6c4=B2 | 
[V:3] B4A8 | 
[V:1] G4z4C2E2- | 
[V:2] d4g8 | 
[V:3] G6c6 | 
[V:1] E2F2G4E2C2 | 
[V:2] z2c2d2e2c4 | 
[V:3] B2A2G4g2e2 | 
[V:1] G2A2G2c2=B2cA | 
[V:2] e2d2g4^f4 | 
[V:3] c2f2e2c2d4 | 
[V:1] c12 |]  
[V:2] g12 |]  
[V:3] c12 |]  



